X: 375
T:Father Quinn
M:C
L:1/8
B:O'Neill's 375
N:"Slow with expression."
N:"collected by J. O'Neill."
N:All ornaments (~) are trills, ">" is an accent.
N:Grace notes are slurred to following note (which is then
N:sometimes slurred to the note after that.)
Z:Transcribed by Chris Falt, cfalt@trytel.com
K:G
G|c2 ~ed cB2 AG|cB ~AG FE2 GA|Bd3 D3E|GA/2B/2 B~AG G2z:|
G|B3d e2 f2|e3d cB ~AG|""B2 ""d2 ""e2 ""f2|""g3B BA2 zf|
""g2 efed B2 ABAG|cB ABAG FE2 GA|Bd3 D3E|GA/2B/2 BAG G2z||
